img/vk-white.svg

<svg width="19" height="19" viewBox="0 0 19 19" fill="none" xmlns="http://www.w3.org/2000/svg">
<path d="M9.38 0.0400391C7.52481 0.0400391 5.71129 0.58334 4.16875 1.60124C2.62622 2.61914 1.42396 4.06592 0.714014 5.75862C0.00406429 7.45132 -0.181691 9.31393 0.180238 11.1109C0.542167 12.9079 1.43553 14.5585 2.74734 15.854C4.05916 17.1495 5.73051 18.0318 7.55006 18.3893C9.3696 18.7467 11.2556 18.5632 12.9696 17.8621C14.6835 17.161 16.1485 15.9736 17.1792 14.4502C18.2099 12.9268 18.76 11.1358 18.76 9.30365C18.76 8.08713 18.5174 6.88253 18.046 5.75862C17.5746 4.63471 16.8837 3.61349 16.0127 2.75329C15.1416 1.89308 14.1076 1.21073 12.9696 0.745189C11.8315 0.279649 10.6118 0.0400391 9.38 0.0400391ZM15.2827 6.75387C15.2032 6.93932 15.1368 7.13148 15.0411 7.30815C14.7272 7.89497 14.3004 8.40792 13.8997 8.93792C13.6931 9.21067 13.4881 9.48496 13.304 9.77269C13.1633 9.99223 13.1994 10.2035 13.3709 10.4003C13.4541 10.4954 13.5446 10.5842 13.6325 10.6736C13.9714 11.0099 14.325 11.3332 14.6472 11.6845C14.9255 11.9883 15.2152 12.2966 15.2806 12.7311V12.7554C15.2011 12.9925 15.0845 13.0885 14.8245 13.0968C14.257 13.1149 13.6879 13.1082 13.1214 13.1407C12.6292 13.1696 12.2385 12.9857 11.9074 12.6531C11.638 12.385 11.3912 12.0952 11.1275 11.8214C11.0308 11.7218 10.9235 11.6328 10.8074 11.5559C10.6102 11.4247 10.469 11.449 10.3074 11.6225C10.1248 11.8188 10.0757 12.0657 10.0459 12.3173C10.0307 12.4423 10.0317 12.5689 10.0234 12.6944C10.0071 12.9351 9.88632 13.0787 9.64415 13.0958C9.36169 13.1154 9.07663 13.1159 8.79313 13.1087C8.55912 13.1063 8.32558 13.0873 8.09433 13.0519C7.41435 12.9367 6.83899 12.5906 6.28245 12.2037C5.76619 11.8421 5.38332 11.3617 5.00828 10.8714C4.05423 9.62237 3.32718 8.24572 2.68957 6.81844C2.56351 6.53691 2.65662 6.37884 2.97097 6.35353C3.20007 6.33597 3.43126 6.34113 3.66193 6.33958C4.02807 6.33648 4.39421 6.33597 4.76035 6.33442C5.03025 6.33442 5.21018 6.45168 5.33049 6.69602C5.65095 7.35412 5.98117 8.00758 6.32116 8.65639C6.45849 8.9361 6.65591 9.1829 6.89966 9.37959C6.96047 9.42775 7.02861 9.46611 7.10156 9.49323C7.24488 9.54489 7.35524 9.49323 7.42952 9.36357C7.55139 9.15126 7.56081 8.91364 7.58644 8.68067C7.65519 8.14725 7.63505 7.6063 7.52681 7.07931C7.4609 6.77402 7.26842 6.6144 6.9708 6.54931C6.92289 6.53406 6.87664 6.51416 6.83271 6.4899C6.85369 6.44281 6.87982 6.39812 6.91065 6.35663C7.03294 6.2163 7.20261 6.12454 7.3882 6.09835C8.09744 5.98888 8.81951 5.98784 9.52907 6.09525C9.88004 6.15052 10.0077 6.26778 10.0411 6.67122C10.0673 6.98994 10.0411 7.3128 10.0359 7.6341C10.0312 8.05665 10.0213 8.47921 10.026 8.90176C10.0282 9.02772 10.0532 9.15227 10.0997 9.26956C10.1965 9.51647 10.389 9.55005 10.593 9.38165C10.9246 9.10787 11.1474 8.75196 11.3776 8.40017C11.7208 7.86465 12.0119 7.29819 12.2469 6.70841C12.2737 6.6404 12.3062 6.57474 12.3442 6.51212C12.3693 6.46737 12.4062 6.4301 12.4509 6.40421C12.4956 6.37831 12.5465 6.36474 12.5984 6.3649C13.3479 6.35611 14.0969 6.3432 14.8475 6.34372C15.0259 6.34372 15.2137 6.37471 15.2858 6.58495L15.2827 6.75387Z" fill="white"/>
</svg>

<svg width="19" height="19" fill="none" xmlns="http://www.w3.org/2000/svg"><path d="M9.38.04a9.464 9.464 0 00-5.211 1.561A9.29 9.29 0 00.714 5.76a9.157 9.157 0 00-.534 5.35 9.228 9.228 0 002.567 4.743 9.418 9.418 0 004.803 2.535 9.49 9.49 0 005.42-.527 9.356 9.356 0 004.21-3.412 9.164 9.164 0 00.867-8.692 9.257 9.257 0 00-2.034-3.005A9.39 9.39 0 0012.97.745 9.483 9.483 0 009.38.04zm5.903 6.714c-.08.185-.146.377-.242.554-.314.587-.74 1.1-1.141 1.63-.207.273-.412.547-.596.835-.14.22-.105.43.067.627.083.095.174.184.261.274.34.336.693.66 1.015 1.01.278.304.568.613.634 1.047v.024c-.08.237-.197.333-.457.342-.567.018-1.136.011-1.703.044-.492.029-.883-.155-1.214-.488-.269-.268-.516-.558-.78-.832a1.936 1.936 0 00-.32-.265c-.197-.131-.338-.107-.5.067-.182.196-.231.443-.261.694-.015.125-.014.252-.023.377-.016.241-.137.385-.379.402a9.01 9.01 0 01-.85.013 4.954 4.954 0 01-.7-.057c-.68-.115-1.255-.461-1.812-.848-.516-.362-.899-.842-1.274-1.333-.954-1.249-1.68-2.625-2.318-4.053-.126-.281-.033-.44.281-.464.23-.018.46-.013.69-.014.367-.004.733-.004 1.1-.006.27 0 .45.118.57.362.32.658.65 1.312.99 1.96.137.28.335.527.579.724.06.048.129.086.202.113.143.052.253 0 .328-.13.121-.212.13-.45.156-.682a4.866 4.866 0 00-.06-1.602c-.065-.305-.258-.465-.555-.53a.767.767 0 01-.138-.06.703.703 0 01.078-.132.777.777 0 01.477-.259c.71-.11 1.432-.11 2.141-.003.351.056.479.173.512.576.026.319 0 .642-.005.963-.005.423-.015.845-.01 1.268.002.126.027.25.074.368.097.246.289.28.493.112.332-.274.554-.63.785-.982a9.986 9.986 0 00.869-1.692 1.29 1.29 0 01.097-.196.287.287 0 01.254-.147c.75-.009 1.499-.022 2.25-.021.178 0 .366.03.438.24l-.003.17z" fill="#fff"/></svg>
